src/16/panel/y-ppa-indicator.svg

<svg xmlns="http://www.w3.org/2000/svg" width="16" height="16" version="1.1">
 <defs>
  <style id="current-color-scheme" type="text/css">
   .ColorScheme-Text { color:#dfdfdf; } .ColorScheme-Highlight { color:#4285f4; }
  </style>
 </defs>
 <path style="fill:currentColor" class="ColorScheme-Text" d="M 4.53,1 C 2.5672,1 1,2.5692 1,4.532 V 11.468 C 1,13.432 2.5672,15 4.53,15 H 11.47 C 13.433,15 15,13.432 15,11.468 V 4.532 C 15,2.5692 13.433,1 11.47,1 Z M 2.002,3.0011 7,3 V 3.4701 C 6.871,3.4821 6.7906,3.4701 6.6266,3.4701 6.0867,3.5061 5.6887,3.5741 5.6887,3.8761 5.6887,4.142 5.7707,4.391 5.9697,4.657 L 8.47,8.53 11.125,4.626 C 11.301,4.348 11.375,4.0961 11.375,3.9381 11.375,3.7081 11.188,3.555 11,3.47 H 10 V 3.0001 H 14 V 3.47 C 13.554,3.506 13.173,3.5351 12.844,3.8131 12.527,4.0791 12.091,4.609 11.563,5.4069 L 9,9.47 V 13 C 9.211,13.193 10.213,13.519 11,13.531 V 14 H 5 V 13.53 C 5.7989,13.494 6.812,13.193 7,13 V 9.44 L 4.8755,6.1879 C 3.9596,4.883 3.3565,4.103 3.0625,3.8131 2.7685,3.5231 2.462,3.47 2,3.47 V 3.0001 Z"/>
</svg>

<svg xmlns="http://www.w3.org/2000/svg" width="16" height="16"><defs><style id="current-color-scheme" type="text/css"></style></defs><path d="M4.53 1A3.515 3.515 0 0 0 1 4.532v6.936A3.514 3.514 0 0 0 4.53 15h6.94A3.514 3.514 0 0 0 15 11.468V4.532A3.515 3.515 0 0 0 11.47 1zM2.002 3.001L7 3v.47c-.129.012-.21 0-.373 0-.54.036-.938.104-.938.406 0 .266.082.515.28.781L8.47 8.53l2.655-3.904c.176-.278.25-.53.25-.688 0-.23-.187-.383-.375-.468h-1V3h4v.47c-.446.036-.827.065-1.156.343-.317.266-.753.796-1.281 1.594L9 9.47V13c.211.193 1.213.519 2 .531V14H5v-.47c.799-.036 1.812-.337 2-.53V9.44L4.875 6.188C3.96 4.883 3.357 4.103 3.063 3.813c-.293-.29-.6-.343-1.062-.343V3z" fill="currentColor" color="#bebebe"/></svg>
